X: 112
T: Il est tousjours
N: Derived from Mar3012-Il_est_tousjours.krn
C: Johannes Martini
%%abc-version 2.0
%%abcx-abcm2ps-target-version 5.9.1 (29 Sep 2008)
%%abc-creator hum2abc beta
%%abcx-conversion-date 2019/02/17 07:19:43
%%abc-edited-by Jesse Rodin
%%abc-edited-by Chris Gage 11-06-2014
%%abcx-initial-encoding-date 2015/03/01/
%%humdrum-veritas 309783135
%%humdrum-veritas-data 55984656
%%linebreak <none>
%%barnumbers 0
L: 1/4
M: 2/1
Q: 1/2=120
V: 1 clef=treble
V: 2 clef=treble-8
V: 3 clef=treble-8
K: C
[V:1] z8 | 
[V:2] z8 | 
[V:3] d6cB | 
[V:1] z8 | 
[V:2] z8 | 
[V:3] c4d4 | 
[V:1] z8 | 
[V:2] d6cB | 
[V:3] G4F2G2 | 
[V:1] z8 | 
[V:2] c4d4 | 
[V:3] A4G4 | 
[V:1] d6cB | 
[V:2] G4F2G2 | 
[V:3] B3cd2e2- | 
[V:1] c4d4 | 
[V:2] A4G4 | 
[V:3] e2dcB2d2- | 
[V:1] G4F2G2 | 
[V:2] z8 | 
[V:3] dcB2A2G2- | 
[V:1] A4G4- | 
[V:2] z4B3c | 
[V:3] G2^F2G3A | 
[V:1] G4G4 | 
[V:2] d2e4dc | 
[V:3] B2c4BA | 
[V:1] z8 | 
[V:2] B2d3cB2 | 
[V:3] G2B3cd2- | 
[V:1] z8 | 
[V:2] A2G4^F2 | 
[V:3] d2cBA4 | 
[V:1] B3cd2e2- | 
[V:2] G3AB2c2- | 
[V:3] z2G4C2- | 
[V:1] e2dcB2d2- | 
[V:2] c2d3ef2- | 
[V:3] C2G4D2- | 
[V:1] dcB2A2B2- | 
[V:2] fed2c2d2- | 
[V:3] D2G2A2G2- | 
[V:1] BAG4^F2 | 
[V:2] dBc2A4 | 
[V:3] G2C2D4 | 
[V:1] G8 | 
[V:2] G8 | 
[V:3] d4e4 | 
[V:1] z8 | 
[V:2] F4D4 | 
[V:3] d2f3ed2- | 
[V:1] d4e4 | 
[V:2] G2B2A4 | 
[V:3] d2^cB^c4 | 
[V:1] d2f3ed2- | 
[V:2] D4z4 | 
[V:3] d4D4 | 
[V:1] d2^cBc4 | 
[V:2] d4e4 | 
[V:3] G2B2A4 | 
[V:1] d4A4 | 
[V:2] d2f3ed2- | 
[V:3] D8 | 
[V:1] F2G2E4 | 
[V:2] d2^cB^c4 | 
[V:3] z4A4 | 
[V:1] D4z4 | 
[V:2] d4A4 | 
[V:3] B4c2A2- | 
[V:1] D4E4 | 
[V:2] F2G2E4 | 
[V:3] A2d4c2 | 
[V:1] F2D4G2- | 
[V:2] D4z4 | 
[V:3] d2B4AG | 
[V:1] G2^F2G2B2 | 
[V:2] D4E4 | 
[V:3] A4G4 | 
[V:1] A2d4cB | 
[V:2] F2D4G2- | 
[V:3] z2A2B4 | 
[V:1] A4d4 | 
[V:2] G2^F2G2B2 | 
[V:3] c4B2G2 | 
[V:1] c2e4dc | 
[V:2] A2c4BA | 
[V:3] A6d2- | 
[V:1] B3AB4 | 
[V:2] G4d4 | 
[V:3] d4G4 | 
[V:1] A2c4BA | 
[V:2] c2e4dc | 
[V:3] z2C4D2 | 
[V:1] G2A4G2 | 
[V:2] B2A2B4 | 
[V:3] E2F2G4 | 
[V:1] A6B2- | 
[V:2] A4F2G2- | 
[V:3] D4d4 | 
[V:1] BAc3BAG | 
[V:2] GFA3GFE | 
[V:3] e4c4 | 
[V:1] !fermata!F8 | 
[V:2] !fermata!D8 | 
[V:3] !fermata!d8 | 
[V:1] z8 | 
[V:2] d4e4 | 
[V:3] D4G4 | 
[V:1] z8 | 
[V:2] f2e2d2f2- | 
[V:3] F4G2A2 | 
[V:1] D4G4 | 
[V:2] f2ed^c3B | 
[V:3] BAGFE4 | 
[V:1] F4G2A2 | 
[V:2] d4z4 | 
[V:3] D4E2F2- | 
[V:1] BAGFE4 | 
[V:2] D4G4 | 
[V:3] FED4^C2 | 
[V:1] D4E2F2- | 
[V:2] F4G2A2 | 
[V:3] D4z4 | 
[V:1] F2D4^C2 | 
[V:2] BAGFE4 | 
[V:3] d4e4 | 
[V:1] D4z4 | 
[V:2] D4d4- | 
[V:3] f2e2d2f2- | 
[V:1] d4e4 | 
[V:2] d2cBA4 | 
[V:3] f2ed^c3B | 
[V:1] f2e2d2f2- | 
[V:2] d8 | 
[V:3] d4B4 | 
[V:1] f2ed^c3B | 
[V:2] e8 | 
[V:3] A8 | 
[V:1] d3cA2B2- | 
[V:2] d8 | 
[V:3] D4z4 | 
[V:1] BAG4FE | 
[V:2] z8 | 
[V:3] G4A4 | 
[V:1] DEFGE4 | 
[V:2] G4A4 | 
[V:3] B2d4c2 | 
[V:1] D4z4 | 
[V:2] B2d4c2 | 
[V:3] d2B2A4 | 
[V:1] G4A4 | 
[V:2] d2B2A4 | 
[V:3] G4c4 | 
[V:1] B2d4c2 | 
[V:2] G2F2G2E2 | 
[V:3] d4e4 | 
[V:1] d2B2A4 | 
[V:2] D2G4^F2 | 
[V:3] f2d2d4 | 
[V:1] G2F2G2E2 | 
[V:2] G2A2B2c2 | 
[V:3] z2D2G2A2 | 
[V:1] D2G4^F2 | 
[V:2] d2e2d4 | 
[V:3] D2C2D4 | 
[V:1] G2d4c2 | 
[V:2] G4z2A2 | 
[V:3] d4e4 | 
[V:1] dcBAB2A2- | 
[V:2] B2d4cB | 
[V:3] d4D4 | 
[V:1] AGG4^F2 | 
[V:2] cBAGA4 | 
[V:3] E4D4 | 
[V:1] G8 |]  
[V:2] G8 |]  
[V:3] d8 |]  



